symbols/web/monitor_weight/materialsymbolsoutlined/monitor_weight_wght700grad200_40px.svg

<svg xmlns="http://www.w3.org/2000/svg" height="40" width="40"><path d="M20 20.208q2.125 0 3.562-1.416Q25 17.375 25 15.25t-1.438-3.542Q22.125 10.292 20 10.292q-2.083 0-3.542 1.437Q15 13.167 15 15.25q0 2.125 1.458 3.542 1.459 1.416 3.542 1.416Zm-2.625-4.125q-.333 0-.583-.27-.25-.271-.25-.605 0-.291.25-.562.25-.271.583-.271.333 0 .583.25.25.25.25.583 0 .334-.25.605-.25.27-.583.27Zm2.625 0q-.333 0-.583-.27-.25-.271-.25-.605 0-.291.25-.562.25-.271.583-.271.333 0 .583.25.25.25.25.583 0 .334-.25.605-.25.27-.583.27Zm2.625 0q-.375 0-.625-.27-.25-.271-.25-.605 0-.291.271-.562.271-.271.604-.271.333 0 .583.25.25.25.25.583 0 .334-.25.605-.25.27-.583.27ZM8.208 36.208q-1.833 0-3.125-1.291-1.291-1.292-1.291-3.125V8.208q0-1.833 1.291-3.146Q6.375 3.75 8.208 3.75h23.584q1.833 0 3.146 1.312 1.312 1.313 1.312 3.146v23.584q0 1.833-1.312 3.125-1.313 1.291-3.146 1.291Zm0-4.416h23.584V8.208H8.208v23.584Zm0-23.584v23.584V8.208Z"/></svg>

<svg xmlns="http://www.w3.org/2000/svg" height="40" width="40"><path d="M8.208 36.208Q6.375 36.208 5.083 34.958Q3.792 33.708 3.792 31.875V8.25Q3.792 6.417 5.083 5.083Q6.375 3.75 8.208 3.75H31.792Q33.625 3.75 34.938 5.062Q36.25 6.375 36.25 8.208V31.792Q36.25 33.625 34.938 34.917Q33.625 36.208 31.792 36.208ZM8.208 31.792H31.792Q31.792 31.792 31.792 31.792Q31.792 31.792 31.792 31.792V8.208Q31.792 8.208 31.792 8.208Q31.792 8.208 31.792 8.208H8.208Q8.208 8.208 8.208 8.208Q8.208 8.208 8.208 8.208V31.792Q8.208 31.792 8.208 31.792Q8.208 31.792 8.208 31.792ZM20.042 20.208Q22.125 20.208 23.562 18.792Q25 17.375 25 15.25Q25 13.125 23.562 11.708Q22.125 10.292 20.042 10.292Q17.917 10.292 16.458 11.729Q15 13.167 15 15.25Q15 17.375 16.458 18.792Q17.917 20.208 20.042 20.208ZM17.375 16.083Q17.042 16.083 16.792 15.813Q16.542 15.542 16.542 15.208Q16.542 14.917 16.792 14.646Q17.042 14.375 17.375 14.375Q17.708 14.375 17.958 14.625Q18.208 14.875 18.208 15.208Q18.208 15.542 17.958 15.813Q17.708 16.083 17.375 16.083ZM20 16.083Q19.667 16.083 19.417 15.813Q19.167 15.542 19.167 15.208Q19.167 14.917 19.417 14.646Q19.667 14.375 20 14.375Q20.333 14.375 20.583 14.625Q20.833 14.875 20.833 15.208Q20.833 15.542 20.583 15.813Q20.333 16.083 20 16.083ZM22.625 16.083Q22.25 16.083 22 15.813Q21.75 15.542 21.75 15.208Q21.75 14.917 22.021 14.646Q22.292 14.375 22.625 14.375Q22.958 14.375 23.208 14.625Q23.458 14.875 23.458 15.208Q23.458 15.542 23.208 15.813Q22.958 16.083 22.625 16.083ZM8.208 31.792Q8.208 31.792 8.208 31.792Q8.208 31.792 8.208 31.792V8.208Q8.208 8.208 8.208 8.208Q8.208 8.208 8.208 8.208Q8.208 8.208 8.208 8.208Q8.208 8.208 8.208 8.208V31.792Q8.208 31.792 8.208 31.792Q8.208 31.792 8.208 31.792Z"/></svg>
